table-sync.svg

<svg fill="currentColor" viewBox="0 0 24 24"><path d="M19 12v1.5c2.21 0 4 1.79 4 4 0 .82-.24 1.58-.67 2.21l-1.09-1.09c.17-.34.26-.72.26-1.12A2.5 2.5 0 0 0 19 15v1.5l-2.25-2.25zm0 11v-1.5c-2.21 0-4-1.79-4-4 0-.82.25-1.58.67-2.21l1.09 1.09c-.17.34-.26.72-.26 1.12A2.5 2.5 0 0 0 19 20v-1.5l2.25 2.25zM4 3h14a2 2 0 0 1 2 2v6h-.5c-1.84 0-3.5.77-4.69 2H12v4h1v.5c0 .5.06 1 .17 1.5H4a2 2 0 0 1-2-2V5c0-1.1.9-2 2-2m0 4v4h6V7zm8 0v4h6V7zm-8 6v4h6v-4z"/></svg>

<svg  viewBox="0 0 24 24" fill="currentColor"><path  d="M19 12V13.5C21.21 13.5 23 15.29 23 17.5C23 18.32 22.76 19.08 22.33 19.71L21.24 18.62C21.41 18.28 21.5 17.9 21.5 17.5C21.5 16.12 20.38 15 19 15V16.5L16.75 14.25L19 12M19 23V21.5C16.79 21.5 15 19.71 15 17.5C15 16.68 15.25 15.92 15.67 15.29L16.76 16.38C16.59 16.72 16.5 17.1 16.5 17.5C16.5 18.88 17.62 20 19 20V18.5L21.25 20.75L19 23M4 3H18C19.11 3 20 3.9 20 5V11L19.5 11C17.66 11 16 11.77 14.81 13H12V17H13L13 17.5C13 18 13.06 18.5 13.17 19H4C2.9 19 2 18.11 2 17V5C2 3.9 2.9 3 4 3M4 7V11H10V7H4M12 7V11H18V7H12M4 13V17H10V13H4Z"/></svg>
